packages/icons/src/brands/medium-alt.svg

<svg aria-label="medium logo" viewBox="0 0 20 12" xmlns="http://www.w3.org/2000/svg">
<path d="M11.2812 6.00008C11.2812 9.13664 8.75578 11.6793 5.64069 11.6793C2.52561 11.6793 0 9.13664 0 6.00008C0 2.86353 2.52542 0.320679 5.64069 0.320679C8.75597 0.320679 11.2812 2.86353 11.2812 6.00008Z" />
<path d="M17.4691 6.00004C17.4691 8.95243 16.2064 11.3468 14.6487 11.3468C13.0911 11.3468 11.8284 8.95243 11.8284 6.00004C11.8284 3.04765 13.0909 0.65332 14.6485 0.65332C16.2062 0.65332 17.4691 3.04689 17.4691 6.00004Z" />
<path d="M20 6.00008C20 8.6447 19.556 10.7899 19.0081 10.7899C18.4602 10.7899 18.0164 8.64527 18.0164 6.00008C18.0164 3.3549 18.4604 1.21027 19.0081 1.21027C19.5558 1.21027 20 3.3547 20 6.00008Z" />
</svg>

<svg xmlns="http://www.w3.org/2000/svg" aria-label="medium logo" viewBox="0 -4 20 20"><path d="M11.281 6c0 3.137-2.525 5.68-5.64 5.68S0 9.136 0 6 2.525.32 5.64.32c3.116 0 5.641 2.544 5.641 5.68zm6.189 0c0 2.952-1.264 5.347-2.821 5.347-1.558 0-2.82-2.395-2.82-5.347S13.091.653 14.649.653c1.557 0 2.82 2.394 2.82 5.347zM20 6c0 2.645-.444 4.79-.992 4.79s-.992-2.145-.992-4.79.444-4.79.992-4.79S20 3.355 20 6z"/></svg>
